public/assets/message-primary.svg

<svg width="20" height="17" viewBox="0 0 20 17" fill="none" xmlns="http://www.w3.org/2000/svg">
<path d="M17 0.712402H3C2.20435 0.712402 1.44129 1.02847 0.87868 1.59108C0.316071 2.15369 0 2.91675 0 3.7124V13.7124C0 14.5081 0.316071 15.2711 0.87868 15.8337C1.44129 16.3963 2.20435 16.7124 3 16.7124H17C17.7956 16.7124 18.5587 16.3963 19.1213 15.8337C19.6839 15.2711 20 14.5081 20 13.7124V3.7124C20 2.91675 19.6839 2.15369 19.1213 1.59108C18.5587 1.02847 17.7956 0.712402 17 0.712402V0.712402ZM16.59 2.7124L10.71 8.5924C10.617 8.68613 10.5064 8.76052 10.3846 8.81129C10.2627 8.86206 10.132 8.8882 10 8.8882C9.86799 8.8882 9.73728 8.86206 9.61542 8.81129C9.49356 8.76052 9.38296 8.68613 9.29 8.5924L3.41 2.7124H16.59ZM18 13.7124C18 13.9776 17.8946 14.232 17.7071 14.4195C17.5196 14.607 17.2652 14.7124 17 14.7124H3C2.73478 14.7124 2.48043 14.607 2.29289 14.4195C2.10536 14.232 2 13.9776 2 13.7124V4.1224L7.88 10.0024C8.4425 10.5642 9.205 10.8798 10 10.8798C10.795 10.8798 11.5575 10.5642 12.12 10.0024L18 4.1224V13.7124Z" fill="#DFBB41"/>
</svg>

<svg width="20" height="17" fill="none" xmlns="http://www.w3.org/2000/svg"><path d="M17 .712H3a3 3 0 0 0-3 3v10a3 3 0 0 0 3 3h14a3 3 0 0 0 3-3v-10a3 3 0 0 0-3-3Zm-.41 2-5.88 5.88a1 1 0 0 1-1.42 0l-5.88-5.88h13.18Zm1.41 11a1 1 0 0 1-1 1H3a1 1 0 0 1-1-1v-9.59l5.88 5.88a3 3 0 0 0 4.24 0L18 4.122v9.59Z" fill="#DFBB41"/></svg>
